packages/core/src/svgs/tokens/mono/NKN.svg

<svg width="24" height="24" viewBox="0 0 24 24" fill="none" xmlns="http://www.w3.org/2000/svg">
<path d="M5.97691 7.85733C7.67278 6.39299 11.8842 4.60325 15.1509 9.19031C13.3987 10.6734 9.0933 12.4881 5.97691 7.85733ZM8.56139 22C7.08454 20.3104 5.24474 16.0926 9.73154 12.7134C11.2335 14.4656 13.0984 18.7836 8.56139 22ZM12.3411 15.7296C12.5101 13.4769 14.2185 9.209 19.7441 10.0977C19.5501 12.4005 17.7916 16.756 12.3411 15.7296ZM14.0495 2C13.261 3.38923 12.5851 6.58073 16.1708 8.22653C16.9155 6.76846 17.5288 3.4831 14.0495 2ZM12.3787 17.1502C12.7855 18.6959 14.5251 21.4494 18.2173 20.0789C17.7354 18.5145 15.8893 15.7422 12.3787 17.1502ZM2.61646 13.9525C3.99318 14.7535 7.15964 15.4481 8.79918 11.8373C7.35989 11.0863 4.10582 10.4481 2.6227 13.9525H2.61646ZM8.96189 2.5632C8.87428 3.6771 9.43746 5.85482 12.3849 5.71089C12.3849 4.59073 11.7153 2.39424 8.96189 2.56946V2.5632ZM16.7591 16.249C17.4726 17.1001 19.3874 18.2453 21.3836 16.0551C20.6077 15.2541 18.5927 14.1715 16.7591 16.249ZM3.21721 18.9211C4.31233 19.0276 6.47753 18.4893 6.38367 15.5169C5.26977 15.4919 3.08579 16.1427 3.21721 18.9211Z" fill="white"/>
</svg>

<svg xmlns="http://www.w3.org/2000/svg" width="24" height="24" fill="none" viewBox="0 0 24 24">
    <path fill="#fff" d="M5.977 7.857c1.696-1.464 5.907-3.254 9.174 1.333-1.752 1.483-6.058 3.298-9.174-1.333M8.56 22c-1.476-1.69-3.316-5.907 1.17-9.287 1.502 1.753 3.367 6.07-1.17 9.287m3.78-6.27c.17-2.253 1.878-6.521 7.403-5.632-.194 2.302-1.952 6.658-7.403 5.632M14.05 2c-.789 1.39-1.465 4.58 2.12 6.227.745-1.459 1.359-4.744-2.12-6.227m-1.671 15.15c.407 1.546 2.146 4.3 5.838 2.929-.482-1.564-2.328-4.337-5.838-2.929m-9.763-3.197c1.377.8 4.544 1.495 6.183-2.116-1.44-.75-4.693-1.389-6.176 2.116zm6.346-11.39c-.088 1.114.475 3.292 3.423 3.148 0-1.12-.67-3.317-3.423-3.142zm7.797 13.686c.714.851 2.628 1.996 4.625-.194-.776-.8-2.791-1.883-4.625.194M3.217 18.921c1.095.107 3.26-.432 3.167-3.404-1.114-.025-3.298.626-3.167 3.404"/>
</svg>
